X:14504
T:Rondeau du Savs
A:Gers
O:France
M:2/4
L:1/8
Q:1/8=230
K:G
d>c BA|GB A/2B/2A|d>c BA|GB A2:|
|:G>A Bc|BA d2|d>e dc|1A/2c/2A/2c/2 BG:|2BA G2||
